X:182
T: Warum weinst du, schoene Gaertnersfrau
N: D1013
O: Europa, Mitteleuropa, Deutschland, Anhalt, Rauschenbach, Loedderitz
N: DVA-Signatur A 59 974
R: ???
M: 4/4
L: 1/8
K: G
DD | G2G2G2G2 | G2B2D4
D2F2A3G | F2A2c2B2 | G4z2
DD | G2B2B2d2 | c2B2A2G2 | E4
G2E2 | D2G2F2E2 | F2G2B2A2 | G4z2

